!!!!SEGMENT: pl-kk--kk-i-636--003-003_anonim--in-sabbato-sancto-lamentatio-2da.krn
!!!cenid: 18xx:4549
!!!COM: Anonim
!!!COM-rismID: pe30004985
!!!CDT:
!!!CNT:
!!!OPR: In Sabbato Sancto
!!!OTL: Lamentatio 2da
!!!OMV: 003
!!!PDT:
!!!AGN: Sacred
!!!YEC: Copyright 2022 Narodowy Instytut Fryderyka Chopina (https://polishscores.org)
!!!YEM: License CC-BY-4.0 (https://creativecommons.org/licenses/by/4.0)
!!!SMS-siglum: PL-Kk
!!!SMS-shelfmark: Kk.I.636
!!!SMS-variant:
!!!SMS-altvar:
!!!SMS-shelfwork: 003-003 M
!!!NIFC-rismSourceID: 1001216440
!!!NIFC-rismChildID: 1001216928
!!!NIFC-islandoraID: pl-kk:40786
!!!URL-pdf-islandora: https://repozytorium.nifc.pl/islandora/object/pl-kk%3A40786/datastream/PDF/view
!!!URL-scan: https://polish.musicsources.pl/pl/lokalizacje/galeria/rekopisy/7271/1 @EN{Scan on Polish Music Sources Website} @PL{Skany w portalu Dziedzictwo Muzyki Polskiej w otwartym dostępie}
!!!IIIF:
!!!ONB-nifc: UWAGA: Lamentacje i Responsoria In Sabbato Sancto na skanach: S – 15-20, A – 37-42, T – 60-66, B - 86-92. Każda Lamentacja i Responsorium to oddzielne pliki.
!!!AIN: 1 alto 1 bass 1 soprn 1 tenor
!!!key:
**kern	**text	**kern	**kern	**kern
*part4	*part4	*part3	*part2	*part1
*staff4	*staff4	*staff3	*staff2	*staff1
*I"Basso.	*	*I"Tenore.	*I"Alto.	*I"Soprano.
*I'B	*	*I'T	*I'A	*I'S
*Ibass	*	*Itenor	*Ialto	*Isoprn
*ICvox	*	*ICvox	*ICvox	*ICvox
*clefF4	*	*clefC4	*clefC3	*clefC1
*k[b-e-a-]	*	*k[b-e-a-]	*k[b-e-a-]	*k[b-e-a-]
*c:	*	*c:	*c:	*c:
*M2/4	*	*M2/4	*M2/4	*M2/4
=1	=1	=1	=1	=1
!	!	!LO:TX:a:t=Tacet.	!LO:TX:a:t=Tacet.	!LO:TX:a:t=Tacet.
4G\	A-	2ryy	2ryy	2ryy
4F\	.	.	.	.
=2	=2	=2	=2	=2
4E-\	.	2ryy	2ryy	2ryy
4F\	.	.	.	.
=3	=3	=3	=3	=3
*2\right	*	*	*	*
2F\	-leph,	2ryy	2ryy	2ryy
=4	=4	=4	=4	=4
2E-;\	.	2ryy	2ryy	2ryy
!LO:LB:g=original	!	!	!	!
=5||	=5||	=5||	=5||	=5||
4E-\	quo-	2ryy	2ryy	2ryy
(4F\	.	.	.	.
=6	=6	=6	=6	=6
8G\)	.	2ryy	2ryy	2ryy
8G\	-mo-	.	.	.
4G\	-do	.	.	.
=7	=7	=7	=7	=7
4r	.	2ryy	2ryy	2ryy
8G\	ob-	.	.	.
8G\	-scu-	.	.	.
=8	=8	=8	=8	=8
4G\	-ra-	2ryy	2ryy	2ryy
8G\	-tum	.	.	.
8G\	est	.	.	.
=9	=9	=9	=9	=9
8G\	au-	2ryy	2ryy	2ryy
8G\	-rum,	.	.	.
8r	.	.	.	.
8G\	mu-	.	.	.
!LO:LB:g=original	!	!	!	!
=10	=10	=10	=10	=10
4G\	-ta-	2ryy	2ryy	2ryy
8G\	-tus	.	.	.
8G\	est	.	.	.
=11	=11	=11	=11	=11
4A-\	co-	2ryy	2ryy	2ryy
4G\	-lor	.	.	.
=12	=12	=12	=12	=12
8F\	op-	2ryy	2ryy	2ryy
8F\	-ti-	.	.	.
(4F\	-mus,	.	.	.
=13	=13	=13	=13	=13
4G\)	.	2ryy	2ryy	2ryy
4r	.	.	.	.
=14	=14	=14	=14	=14
4E-\	dis-	2ryy	2ryy	2ryy
(4F\	-per-	.	.	.
!LO:LB:g=original	!	!	!	!
=15	=15	=15	=15	=15
8G\)	.	2ryy	2ryy	2ryy
8G\	-si	.	.	.
4G\	sunt	.	.	.
=16	=16	=16	=16	=16
8G\	la-	2ryy	2ryy	2ryy
16G\	-pi-	.	.	.
16G\	-des	.	.	.
8G\	san-	.	.	.
8G\	-ctu-	.	.	.
=17	=17	=17	=17	=17
8G\	-a-	2ryy	2ryy	2ryy
8G\	-ri-	.	.	.
4G\	-i,	.	.	.
=18	=18	=18	=18	=18
8r	.	2ryy	2ryy	2ryy
8G\	in	.	.	.
8G\	ca-	.	.	.
16G\	-pi-	.	.	.
16G\	-te	.	.	.
!LO:LB:g=original	!	!	!	!
=19	=19	=19	=19	=19
8G\	om-	2ryy	2ryy	2ryy
8G\	-ni-	.	.	.
4G\	-um	.	.	.
=20	=20	=20	=20	=20
4A-\	pla-	2ryy	2ryy	2ryy
4F\	-te-	.	.	.
=21	=21	=21	=21	=21
4E-\	-a-	2ryy	2ryy	2ryy
4D\	.	.	.	.
=22	=22	=22	=22	=22
4E-\	.	2ryy	2ryy	2ryy
4F\	.	.	.	.
=23	=23	=23	=23	=23
2F\	-rum,	2ryy	2ryy	2ryy
=24	=24	=24	=24	=24
2E-;\	.	2ryy	2ryy	2ryy
!LO:LB:g=original	!	!	!	!
=25||	=25||	=25||	=25||	=25||
4G\	Beth,	2ryy	2ryy	2ryy
4F\	.	.	.	.
=26	=26	=26	=26	=26
4E-\	.	2ryy	2ryy	2ryy
4F\	.	.	.	.
=27	=27	=27	=27	=27
2E-;\	.	2ryy	2ryy	2ryy
=28||	=28||	=28||	=28||	=28||
4E-\	fi-	2ryy	2ryy	2ryy
(4F\	.	.	.	.
=29	=29	=29	=29	=29
8G\)	.	2ryy	2ryy	2ryy
16G\	-li-	.	.	.
16G\	-i	.	.	.
8G\	Si-	.	.	.
8G\	-on	.	.	.
!LO:LB:g=original	!	!	!	!
=30	=30	=30	=30	=30
8G\	in-	2ryy	2ryy	2ryy
8G\	-cli-	.	.	.
4G\	-ti	.	.	.
=31	=31	=31	=31	=31
4r	.	2ryy	2ryy	2ryy
8G\	et	.	.	.
8G\	a-	.	.	.
=32	=32	=32	=32	=32
8G\	-mi-	2ryy	2ryy	2ryy
8G\	-cti	.	.	.
8G\	au-	.	.	.
8G\	-ro	.	.	.
=33	=33	=33	=33	=33
8G\	pri-	2ryy	2ryy	2ryy
8G\	-mo,	.	.	.
4r	.	.	.	.
!LO:LB:g=original	!	!	!	!
=34	=34	=34	=34	=34
8G\	quo-	2ryy	2ryy	2ryy
16G\	-mo-	.	.	.
16G\	-do	.	.	.
8G\	re-	.	.	.
8G\	-pu-	.	.	.
=35	=35	=35	=35	=35
8G\	-ta-	2ryy	2ryy	2ryy
8G\	-ti	.	.	.
8G\	sunt	.	.	.
8G\	in	.	.	.
=36	=36	=36	=36	=36
4A-\	va-	2ryy	2ryy	2ryy
4G\	-sa	.	.	.
!LO:PB:g=original	!	!	!	!
=37	=37	=37	=37	=37
8F\	test-	2ryy	2ryy	2ryy
8F\	-te-	.	.	.
(4F\	-a,	.	.	.
=38	=38	=38	=38	=38
4G\)	.	2ryy	2ryy	2ryy
4r	.	.	.	.
=39	=39	=39	=39	=39
4r	.	2ryy	2ryy	2ryy
8.G\	o-	.	.	.
16G\	-pus	.	.	.
=40	=40	=40	=40	=40
8.A-\	ma-	2ryy	2ryy	2ryy
16F\	-nu-	.	.	.
4F\	-um	.	.	.
=41	=41	=41	=41	=41
4E-\	fi-	2ryy	2ryy	2ryy
4D\	.	.	.	.
!LO:LB:g=original	!	!	!	!
=42	=42	=42	=42	=42
4E-\	.	2ryy	2ryy	2ryy
8F\	.	.	.	.
8F\	-gu-	.	.	.
=43	=43	=43	=43	=43
2F\	-li,	2ryy	2ryy	2ryy
=44	=44	=44	=44	=44
2E-;\	.	2ryy	2ryy	2ryy
=45||	=45||	=45||	=45||	=45||
4G\	Ghi-	2ryy	2ryy	2ryy
4F\	.	.	.	.
=46	=46	=46	=46	=46
4E-\	.	2ryy	2ryy	2ryy
4F\	.	.	.	.
=47	=47	=47	=47	=47
2F\	-me,	2ryy	2ryy	2ryy
=48	=48	=48	=48	=48
2E-;\	.	2ryy	2ryy	2ryy
!LO:LB:g=original	!	!	!	!
=49||	=49||	=49||	=49||	=49||
4E-\	set	2ryy	2ryy	2ryy
4F\	et	.	.	.
=50	=50	=50	=50	=50
8G\	la-	2ryy	2ryy	2ryy
8G\	-mi-	.	.	.
8G\	-ae	.	.	.
8r	.	.	.	.
=51	=51	=51	=51	=51
8G\	nu-	2ryy	2ryy	2ryy
8G\	-da-	.	.	.
8G\	-ve-	.	.	.
8G\	-runt	.	.	.
=52	=52	=52	=52	=52
8G\	mam-	2ryy	2ryy	2ryy
8G\	-mam,	.	.	.
4r	.	.	.	.
!LO:LB:g=original	!	!	!	!
=53	=53	=53	=53	=53
8G\	lac-	2ryy	2ryy	2ryy
8G\	-ta-	.	.	.
8G\	-ve-	.	.	.
8G\	-runt	.	.	.
=54	=54	=54	=54	=54
8.A-\	ca-	2ryy	2ryy	2ryy
16G\	-tu-	.	.	.
4G\	-los	.	.	.
=55	=55	=55	=55	=55
4F\	su-	2ryy	2ryy	2ryy
(4F\	-os,	.	.	.
=56	=56	=56	=56	=56
4G\)	.	2ryy	2ryy	2ryy
4r	.	.	.	.
=57	=57	=57	=57	=57
8.G\	fi-	2ryy	2ryy	2ryy
16G\	-li-	.	.	.
4G\	-a	.	.	.
!LO:LB:g=original	!	!	!	!
=58	=58	=58	=58	=58
8G\	po-	2ryy	2ryy	2ryy
16G\	-pu-	.	.	.
16G\	-li	.	.	.
8G\	me-	.	.	.
16G\	-i	.	.	.
16G\	cru-	.	.	.
=59	=59	=59	=59	=59
8G\	-de-	2ryy	2ryy	2ryy
8G\	-lis,	.	.	.
4r	.	.	.	.
=60	=60	=60	=60	=60
4r	.	2ryy	2ryy	2ryy
8G\	quo-	.	.	.
8G\	-si	.	.	.
=61	=61	=61	=61	=61
8.A-\	stru-	2ryy	2ryy	2ryy
16F\	-thi-	.	.	.
4F\	-o	.	.	.
!LO:LB:g=original	!	!	!	!
=62	=62	=62	=62	=62
4E-\	in	2ryy	2ryy	2ryy
4D\	de-	.	.	.
=63	=63	=63	=63	=63
4E-\	-ser-	2ryy	2ryy	2ryy
4F\	.	.	.	.
=64	=64	=64	=64	=64
2F\	-to,	2ryy	2ryy	2ryy
=65	=65	=65	=65	=65
2E-;\	.	2ryy	2ryy	2ryy
=66||	=66||	=66||	=66||	=66||
4G\	Da-	2ryy	2ryy	2ryy
4F\	.	.	.	.
=67	=67	=67	=67	=67
4E-\	.	2ryy	2ryy	2ryy
4F\	.	.	.	.
=68	=68	=68	=68	=68
2F\	-leth,	2ryy	2ryy	2ryy
=69	=69	=69	=69	=69
2E-;\	.	2ryy	2ryy	2ryy
!LO:LB:g=original	!	!	!	!
=70||	=70||	=70||	=70||	=70||
4E-\	ad	2ryy	2ryy	2ryy
(4F\	he-	.	.	.
=71	=71	=71	=71	=71
8G\)	.	2ryy	2ryy	2ryy
8G\	-sit	.	.	.
4r	.	.	.	.
=72	=72	=72	=72	=72
8G\	lin-	2ryy	2ryy	2ryy
16G\	-gua	.	.	.
16G\	lac-	.	.	.
8G\	-ten-	.	.	.
8G\	-tis	.	.	.
=73	=73	=73	=73	=73
8G\	ad	2ryy	2ryy	2ryy
8G\	pa-	.	.	.
8G\	-la-	.	.	.
8G\	-tum	.	.	.
=74	=74	=74	=74	=74
4A-\	e-	2ryy	2ryy	2ryy
8G\	-jus	.	.	.
8G\	in	.	.	.
=75	=75	=75	=75	=75
4F\	si-	2ryy	2ryy	2ryy
(4F\	-ti,	.	.	.
=76	=76	=76	=76	=76
4G\)	.	2ryy	2ryy	2ryy
4r	.	.	.	.
=77	=77	=77	=77	=77
8G\	par-	2ryy	2ryy	2ryy
16G\	-vu-	.	.	.
16G\	-li	.	.	.
8G\	pe-	.	.	.
8G\	-ti-	.	.	.
!LO:LB:g=original	!	!	!	!
=78	=78	=78	=78	=78
8G\	-e-	2ryy	2ryy	2ryy
8G\	-runt	.	.	.
8G\	pa-	.	.	.
8G\	-nem,	.	.	.
=79	=79	=79	=79	=79
4r	.	2ryy	2ryy	2ryy
8G\	et	.	.	.
8G\	non	.	.	.
=80	=80	=80	=80	=80
8G\	e-	2ryy	2ryy	2ryy
8G\	-rat	.	.	.
8r	.	.	.	.
8G\	qui	.	.	.
=81	=81	=81	=81	=81
8.A-\	fran-	2ryy	2ryy	2ryy
16F\	-ge-	.	.	.
4F\	-ret	.	.	.
!LO:LB:g=original	!	!	!	!
=82	=82	=82	=82	=82
4E-\	e-	2ryy	2ryy	2ryy
4D\	.	.	.	.
=83	=83	=83	=83	=83
4E-\	.	2ryy	2ryy	2ryy
4F\	.	.	.	.
=84	=84	=84	=84	=84
2F\	-is,	2ryy	2ryy	2ryy
=85	=85	=85	=85	=85
2E-;\	.	2ryy	2ryy	2ryy
=86||	=86||	=86||	=86||	=86||
4G\	Heth,	2ryy	2ryy	2ryy
4F\	.	.	.	.
=87	=87	=87	=87	=87
4E-\	.	2ryy	2ryy	2ryy
4F\	.	.	.	.
=88	=88	=88	=88	=88
2E-;\	.	2ryy	2ryy	2ryy
!LO:LB:g=original	!	!	!	!
=89||	=89||	=89||	=89||	=89||
4E-\	qui	2ryy	2ryy	2ryy
8.F\	ves-	.	.	.
16G\	-ce-	.	.	.
=90	=90	=90	=90	=90
8G\	-ba-	2ryy	2ryy	2ryy
8G\	-tur	.	.	.
4r	.	.	.	.
=91	=91	=91	=91	=91
8G\	vo-	2ryy	2ryy	2ryy
16G\	-lup-	.	.	.
16G\	-tu-	.	.	.
8G\	-o-	.	.	.
8G\	-se,	.	.	.
=92	=92	=92	=92	=92
8r	.	2ryy	2ryy	2ryy
8G\	in-	.	.	.
8G\	-te-	.	.	.
8G\	-ri-	.	.	.
!LO:LB:g=original	!	!	!	!
=93	=93	=93	=93	=93
4A-\	-e-	2ryy	2ryy	2ryy
8G\	-runt	.	.	.
8G\	in	.	.	.
=94	=94	=94	=94	=94
4F\	vi-	2ryy	2ryy	2ryy
4F\	-is,	.	.	.
=95	=95	=95	=95	=95
4G\	.	2ryy	2ryy	2ryy
4r	.	.	.	.
!LO:TX:b:t=Volti Subitto&colon;	!	!	!	!
!LO:PB:g=original	!	!	!	!
=96	=96	=96	=96	=96
8r	.	2ryy	2ryy	2ryy
8G\	qui	.	.	.
8G\	nu-	.	.	.
16G\	-tri-	.	.	.
16G\	-e-	.	.	.
=97	=97	=97	=97	=97
8G\	-ban-	2ryy	2ryy	2ryy
8G\	-tur	.	.	.
8r	.	.	.	.
8G\	in	.	.	.
=98	=98	=98	=98	=98
8.G\	cro-	2ryy	2ryy	2ryy
16G\	-ce-	.	.	.
4G\	-is,	.	.	.
=99	=99	=99	=99	=99
4r	.	2ryy	2ryy	2ryy
8G\	am-	.	.	.
8G\	-ple-	.	.	.
!LO:LB:g=original	!	!	!	!
=100	=100	=100	=100	=100
8.A-\	-xa-	2ryy	2ryy	2ryy
16F\	-ti	.	.	.
4F\	sunt	.	.	.
=101	=101	=101	=101	=101
4E-\	ster-	2ryy	2ryy	2ryy
4D\	.	.	.	.
=102	=102	=102	=102	=102
4E-\	.	2ryy	2ryy	2ryy
8F\	.	.	.	.
8F\	-co-	.	.	.
=103	=103	=103	=103	=103
2F\	-re,	2ryy	2ryy	2ryy
=104	=104	=104	=104	=104
2E-;\	.	2ryy	2ryy	2ryy
=105||	=105||	=105||	=105||	=105||
4G\	Va-	2ryy	2ryy	2ryy
4F\	.	.	.	.
!LO:LB:g=original	!	!	!	!
=106	=106	=106	=106	=106
4E-\	.	2ryy	2ryy	2ryy
4F\	.	.	.	.
=107	=107	=107	=107	=107
2F\	-u,	2ryy	2ryy	2ryy
=108	=108	=108	=108	=108
2E-;\	.	2ryy	2ryy	2ryy
=109||	=109||	=109||	=109||	=109||
4E-\	et	2ryy	2ryy	2ryy
(4F\	ma-	.	.	.
=110	=110	=110	=110	=110
8G\)	.	2ryy	2ryy	2ryy
8G\	-jor	.	.	.
8r	.	.	.	.
8G\	ef-	.	.	.
=111	=111	=111	=111	=111
8G\	-fec-	2ryy	2ryy	2ryy
8G\	-ta	.	.	.
!LO:LB:g=original	!	!	!	!
8G\	est	.	.	.
8G\	i-	.	.	.
=112	=112	=112	=112	=112
8G\	-ni-	2ryy	2ryy	2ryy
8G\	-qui-	.	.	.
8G\	-tas	.	.	.
8r	.	.	.	.
=113	=113	=113	=113	=113
8G\	fi-	2ryy	2ryy	2ryy
16G\	-li-	.	.	.
16G\	-ae	.	.	.
8G\	po-	.	.	.
16G\	-pu-	.	.	.
16G\	-li	.	.	.
!LO:LB:g=original	!	!	!	!
=114	=114	=114	=114	=114
8G\	me-	2ryy	2ryy	2ryy
8G\	-i	.	.	.
8r	.	.	.	.
8G\	pec-	.	.	.
=115	=115	=115	=115	=115
4A-\	-ca-	2ryy	2ryy	2ryy
4G\	-to	.	.	.
=116	=116	=116	=116	=116
8G\	ſo-	2ryy	2ryy	2ryy
8F\	-do-	.	.	.
4F\	-mo-	.	.	.
=117	=117	=117	=117	=117
4F\	-rum,	2ryy	2ryy	2ryy
4G\	.	.	.	.
!LO:LB:g=original	!	!	!	!
=118	=118	=118	=118	=118
4r	.	2ryy	2ryy	2ryy
8G\	quae	.	.	.
8G\	sub-	.	.	.
=119	=119	=119	=119	=119
8G\	-ver-	2ryy	2ryy	2ryy
8G\	-sa	.	.	.
4G\	est,	.	.	.
=120	=120	=120	=120	=120
4r	.	2ryy	2ryy	2ryy
8G\	in	.	.	.
8G\	mo-	.	.	.
=121	=121	=121	=121	=121
8G\	-men-	2ryy	2ryy	2ryy
8G\	-to,	.	.	.
4r	.	.	.	.
!LO:LB:g=original	!	!	!	!
=122	=122	=122	=122	=122
8r	.	2ryy	2ryy	2ryy
8G\	et	.	.	.
8G\	non	.	.	.
8G\	ce-	.	.	.
=123	=123	=123	=123	=123
4G\	-pe-	2ryy	2ryy	2ryy
8G\	-runt	.	.	.
8G\	in	.	.	.
=124	=124	=124	=124	=124
4A-\	e-	2ryy	2ryy	2ryy
4F\	-a	.	.	.
=125	=125	=125	=125	=125
4E-\	ma-	2ryy	2ryy	2ryy
4D\	.	.	.	.
=126	=126	=126	=126	=126
4E-\	.	2ryy	2ryy	2ryy
4D\	.	.	.	.
=127	=127	=127	=127	=127
4E-\	.	2ryy	2ryy	2ryy
4F\	.	.	.	.
!LO:LB:g=original	!	!	!	!
=128	=128	=128	=128	=128
2F\	-nus,	2ryy	2ryy	2ryy
=129	=129	=129	=129	=129
2E-;\	.	2ryy	2ryy	2ryy
=130||	=130||	=130||	=130||	=130||
4E-\	Je-	2ryy	2ryy	2ryy
(4F\	-ru-	.	.	.
=131	=131	=131	=131	=131
8G\)	.	2ryy	2ryy	2ryy
8G\	-sa-	.	.	.
4G\	-lem	.	.	.
=132	=132	=132	=132	=132
4r	.	2ryy	2ryy	2ryy
4G\	Je-	.	.	.
=133	=133	=133	=133	=133
4A-\	-ru-	2ryy	2ryy	2ryy
(4G\	.	.	.	.
!LO:LB:g=original	!	!	!	!
=134	=134	=134	=134	=134
8F\)	.	2ryy	2ryy	2ryy
8F\	-sa-	.	.	.
(4F\	-lem	.	.	.
=135	=135	=135	=135	=135
4G\)	.	2ryy	2ryy	2ryy
4r	.	.	.	.
=136	=136	=136	=136	=136
4E-\	con-	2ryy	2ryy	2ryy
(4F\	-ver-	.	.	.
=137	=137	=137	=137	=137
8G\)	.	2ryy	2ryy	2ryy
8G\	-te-	.	.	.
4G\	-re	.	.	.
=138	=138	=138	=138	=138
8r	.	2ryy	2ryy	2ryy
8G\	ad	.	.	.
8G\	Do-	.	.	.
16G\	-mi-	.	.	.
16G\	-num	.	.	.
!LO:LB:g=original	!	!	!	!
=139	=139	=139	=139	=139
4A-\	De-	2ryy	2ryy	2ryy
4F\	-um	.	.	.
=140	=140	=140	=140	=140
4E-\	tu-	2ryy	2ryy	2ryy
4D\	.	.	.	.
=141	=141	=141	=141	=141
4E-\	.	2ryy	2ryy	2ryy
4F\	.	.	.	.
=142	=142	=142	=142	=142
2F\	-um.	2ryy	2ryy	2ryy
=143	=143	=143	=143	=143
2E-;\	.	2ryy	2ryy	2ryy
=||	=||	=||	=||	=||
*-	*-	*-	*-	*-
!!!system-decoration: [(s1,s2,s3,s4)]
!!!ENC: Anastazja Marusiak
!!!END: 2023-11-18
!!!ENC: Leszek Kubiak
!!!END: 2024-06-12
